X:349
T:La Rosa Enflorece
N:Sephardic song from Istanbul c.1800
Z:Jack Campin, http://www.campin.me.uk/
F:Jack Campin's Nine-Note Tunebook
% last edit 03-02-2013
M:4/4
L:1/8
Q:1/4=80
K:G
 E|A3   B   c>B Ac|   B>A^G=F E3
 E|A3   B   c>B Ac|   B4      z2||
Bc|d>B Bd   c>B Ac|   BA^G=F  E3
 E|^G =F2 E DE  FG|[1 E>=F^GA B2:|\
                   [2 E4      z3|]

